X:4209
L:1/8
M:4/4
K:C
 BEA |[M:2/2][K:D]SOSOO .!fermata!PMTuCO(3(MABc)"^Segno" | TdcdA (3(Bcd) AF | DFAg fdec | 
 TdBdA BdAF | GBAG FDDA |{e} dcdA (3(Bcd) AF | DFAg fdec | defd cdec | dBAG FD"^Fine" D || g | 
 fdde fgaf | gfga bgeg | fdde fgaf | gbag fddg | fdde fgaf | gfga bgeg | fgaf (3(gag) bg | 
 faeg fde"^Dal Segno al Fine" c |]

